X:266
T:Unknown
M:4/4
L:1/8
R:reel
N:Learned from Ari Nieh
Z:Michael Abraham Shulman
K:Em
Be~e2 efge|fdef gfed|Be~e2 efge|ffe^c dcBA:|
FGEC B,CEG|(3FGF DB, A,B,DE|FGEC B,CEG|1 FEDF DEEF:|2 FEDF E4||
%%text `A' part variations
Be~e2 efge|fdef gfed|Bedf efge|fgaf gfed|
Be~e2 efge|fdef gfed|Beze- efge|ffe^c dcBA||
